X:20
T:Grimstock
M:6/8
L:1/8
Q:95
B:The Round Band Book of Playford
K:G
"G"g2f g2d | "Em"e>fg "Bm"f2d |\
"Em"B>cd "D"e2d | "Am"cdB "D"A2"G"G |\
"G"g2f g2d | "C"e>fg "D7"f2d |
"G"B>cd "C"e2d | "D7"c>BA "G"G3 :: \
"G"GGA "G7"BGA | "G6"BGA "G"BGD |\
"C"GGA "G"BGA | "D7"BGA "G"G3 :|
